X: 17672
T: Holly Bush, The
R: reel
M: 4/4
K: Dmixolydian
|:A2FA DAFA|ABde fded|c2Gc EcGc|cedc AcGc|
A2FA DAFA|ABde fded|c2Gc cedc|AcGE D2FG:|
|:Add^c defg|adde dcAB|c2Gc cdeg|aged cAGc|
Add^c defg|adde dcAB|c2Gc cedc|AcGE D2FG:|

